X:1
T:Fleur jetée
T:Fleur jetée (Broken Blossom)
T:Cécile Chaminade
T:Armand Silvestre
T:OpenScore (CC0)
T:OpenScore (CC0)
T:OpenScore (CC0)
T:OpenScore (CC0)
C:Cécile Chaminade
Z:Armand Silvestre
Z:OpenScore (CC0)
%%score 1 { ( 2 5 ) | ( 3 4 ) }
L:1/8
Q:1/4=72
M:4/4
K:Eb
V:1 treble nm="Voice"
V:2 treble nm="Piano"
V:5 treble 
V:3 bass 
V:4 bass 
V:1
"^Andante. (.)" z8 | z8 | z!f! c e c G E C2- | C C{CD} C3/2 =B,/ C4 || %4
w: ||Em- por- te ma fo- li-|* e‿Au gré du vent,|
w: ||Now bear a- way my fol-|ly As wills the wind,|
[M:3/4] z!mf!!<(! E F G E!<)! B ||[M:4/4]!>(! (B4!>)! C4) ||[M:3/4] z!p! F G A F c || %7
w: Fleur en chan- tant cueil-|li- e|Et je- tée en rê-|
w: Thou flow- er cull'd so|gai- ly,|With hea- vy heart re-|
[M:4/4] (c4 =B4) | z!f! c =e c G =E C2- | %9
w: vant, *|Em- por- te ma fo- li-|
w: sign'd. _|Now bear a- way my fol-|
!>(! C4-[Q:1/4=68]"^poco rit." C!p![Q:1/4=64] C[Q:1/4=60]{CD} C3/2 =B,/!>)! | %10
w: * * e‿Au gré du|
w: * ly As wills the|
[Q:1/4=72]"^a tempo" C4- C z z2 | z8 | z!p! c e c G E C2- | C C{CD} C3/2 =B,/ C4 || %14
w: vent: *||Com- me la fleur fau- ché-|e Pé- rit l'a- mour;|
w: wind:  _||As fades a bro- ken blos-|som, So love doth die;|
[M:3/4] z"^cresc." E F G E B ||[M:4/4]!>(! (B4!>)! C4) ||[M:3/4] z"^cresc." F G A F c || %17
w: La main qui t'a tou-|ché- e|Fuit ma main sans re-|
w: The hand that sought thy|bo- som|In my hand ne'er may|
[M:4/4] (c4 =B4) | z!f! c =e c G =E C2- | %19
w: tour. *|Com- me la fleur fau- ché-|
w: lie.  _|As fades a bro- ken blos-|
!>(! C4[Q:1/4=65]"^poco rit." C!p! C[Q:1/4=60]{CD} C3/2 =B,/!>)! |[Q:1/4=72]"^a tempo" C4- C z z2 | %21
w: * e Pé- rit l'a-|mour.  _|
w: * som, So love doth|die.  _|
 z8 | z!f! c e c G E C2- | C C{CD} C3/2 =B,/ C4 ||[M:3/4] z!<(! E F G E!<)! B || %25
w: |Que le vent qui te sè-|* che‿Ô pau- vre fleur,|Tout à l'heu- re si|
w: |May pangs thy life have blast-|ed, Poor flow'r thou art!|So fresh the while life|
[M:4/4]!>(! (B4!>)! C4) ||[M:3/4] z"^cresc." F G A F c ||[M:4/4] (c4 =B4) | z!f! c =e c G =E C2- | %29
w: fraî- che|Et de- main sans cou-|leur;  _|Que le vent qui te sè-|
w: last- ed|And now so wan and|wast- ed;|May pangs thy life have blast-|
!>(! C4 C4-!>)! | C z z2 z!p![Q:1/4=68]"^poco rit." =B, B,[Q:1/4=64] C | [G,G]8-[Q:1/4=60] | %32
w: * che,|_ Sè- che mon|coeur!|
w: * ed|_ Con- sume my|heart! |
 [G,G][Q:1/4=72]"_a tempo" z z2 z4 | z8[Q:1/4=60][Q:1/4=55] |] %34
w: _||
w: _||
V:2
!p! [G,CE]2 [G,CE]2 [G,CE]2 [A,CD]2 | [G,CE]2 [G,CE]2 [G,CG]2 [G,=B,F]2 | %2
 [G,CE]2 [G,CE]2 [G,CE]2 [G,CE]2 | [A,CE]2 [A,CE]2 [G,CE]2 [G,CE]2 || %4
[M:3/4]!<(! [G,EG]2 [G,EG]2!<)!!mf! [_DG_d]2 ||[M:4/4]!>(! [CBc]2 [CBc]2 [CAc]2!>)!!p! [CAc]2 || %6
[M:3/4]!p!!<(! [CAc]2 [CAc]2!<)! [EAce]2 ||[M:4/4]!<(! [DGcd]2 [DGcd]2 [DG=Bd]2!<)! [DGBd]2 | %8
!f! [=EGc=e]2 [EGce]2 [EGce]2 [_B,G_B]2 |!p! [B,GB]2"_dim." [A,FA]2 [G,EG]2 [G,DF]2 | %10
 [G,CE]2 [G,CE]2 [G,CE]2 [A,CD]2 | [G,CE]2 [G,CE]2 [G,CG]2 [G,=B,F]2 | %12
 [G,CE]2 [G,CE]2 [G,CE]2 [G,CE]2 | [A,CE]2 [A,CE]2 [G,CE]2 [G,CE]2 || %14
[M:3/4]!<(! [G,EG]2 [G,EG]2!<)! [_DG_d]2 ||[M:4/4] [CBc]2 [CBc]2 [CAc]2 [CAc]2 || %16
[M:3/4]!p!!<(! [CAc]2 [CAc]2!<)! [EAce]2 ||[M:4/4]!<(! [DAcd]2 [DAcd]2!<)! [DG=Bd]2 [DGBd]2 | %18
!f! [=EGc=e]2 [EGce]2 [EGce]2 [_B,G_B]2 |!p! [B,GB]2"_dim." [A,FA]2 [G,EG]2 [G,DF]2 | %20
"_a tempo" [G,CE]2 [G,CE]2 [G,CE]2 [A,CD]2 | [G,CE]2 [G,CE]2 [G,CG]2 [G,=B,F]2 | %22
 [G,CE]2 [G,CE]2 [G,CE]2 [G,CE]2 | [A,CE]2 [A,CE]2 [G,CE]2 [G,CE]2 || %24
[M:3/4]!<(! [G,EG]2 [G,EG]2!<)! [_DG_d]2 ||[M:4/4]!>(! [CBc]2 [CBc]2 [CAc]2!>)! [CAc]2 || %26
[M:3/4]!<(! [CAc]2 [CAc]2!<)! [EAce]2 ||[M:4/4]!<(! [DAcd]2 [DAcd]2 [DG=Bd]2 [DGBd]2!<)! | %28
!f! [=EGc=e]2 [EGce]2 [EGce]2 [_B,G_B]2 |!p!!>(! [B,GB]2"_dim." [A,FA]2 [A,FA]2!>)! [G,EG]2 | %30
 [^F,C^F]3 z"_poco rit." z4 | z2 E2 D4 |[I:staff +1] [E,C][I:staff -1] (c' [ee']c' ge c2-) | %33
 c(c"_rit."{cd} c>=B !arpeggio![EGc]4) |] %34
V:3
 z2!f!"_marcato"{/=B,,} C,2 G,,3 F,, | G,,2{/F,,} G,,2 E,,3 D,, | C,,2 [C,,C,]2 [C,,C,]2 [C,,C,]2 | %3
 [C,,C,]2 [C,,C,]2 [C,,C,]2 [C,,C,]2 ||[M:3/4]!p! [E,,B,,]2 [E,,B,,]2 [E,,E,]2 || %5
[M:4/4] [A,,=E,]2 [A,,E,]2 [A,,F,]2 [A,,F,]2 ||[M:3/4] [F,,C,F,]2 [F,,C,]2 [F,,C,F,]2 || %7
[M:4/4] [G,,,G,,]2 [G,,D,G,]2 [G,,D,G,]2 [G,,D,G,]2 | [C,,G,,C,]2 [C,,G,,C,]2 [C,,G,,C,]2 C,2 | %9
 [F,,C,]4"^poco rit." G,,2!pp! [G,,,G,,]2 |"^a tempo" [C,,,C,,]2"_marcato"!p!{/=B,,} C,2 G,,3 F,, | %11
 G,,2{/F,,} G,,2 E,,3 D,, | C,,2 [C,,C,]2 [C,,C,]2 [C,,C,]2 | %13
 [C,,C,]2 [C,,C,]2 [C,,C,]2 [C,,C,]2 ||[M:3/4] [E,,B,,]2 [E,,B,,]2 [E,,E,]2 || %15
[M:4/4] [A,,=E,]2 [A,,E,]2 [A,,F,]2 [A,,F,]2 ||[M:3/4] [F,,C,F,]2 [F,,C,]2 [F,,C,F,]2 || %17
[M:4/4] [G,,,G,,]2 [G,,D,G,]2 [G,,D,G,]2 [G,,D,G,]2 | [C,,G,,C,]2 [C,,G,,C,]2 [C,,G,,C,]2 C,2 | %19
 [F,,C,]4"^poco rit." G,,2!pp! [G,,,G,,]2 | [C,,,C,,]2"_marcato"{/=B,,} C,2 G,,3 F,, | %21
 G,,2{/F,,} G,,2 E,,3 D,, | C,,2 [C,,C,]2 [C,,C,]2 [C,,C,]2 | %23
 [C,,C,]2 [C,,C,]2 [C,,C,]2 [C,,C,]2 ||[M:3/4] [E,,B,,]2 [E,,B,,]2 [E,,E,]2 || %25
[M:4/4] [A,,=E,]2 [A,,E,]2 [A,,F,]2 [A,,F,]2 ||[M:3/4] [F,,C,F,]2 [F,,C,]2 [F,,C,F,]2 || %27
[M:4/4] [G,,,G,,]2 [G,,D,G,]2 [G,,D,G,]2 [G,,D,G,]2 | [C,,G,,C,]2 [C,,G,,C,]2 [C,,G,,C,]2 C,2 | %29
 [F,,C,]4 F,,2 G,,2 | [A,,,E,,A,,]3 z z4 |!pp! z2 [G,C]2 [G,C]2 [F,=B,]2 | %32
 [C,,,C,,] z [CEG]2 [_B,EG]2 [B,EG]2 | [A,CE]2 [F,C]2 ([C,G,C]2 C,,2) |] %34
V:4
 x8 | x8 | x8 | x8 ||[M:3/4] x6 ||[M:4/4] x8 ||[M:3/4] x6 ||[M:4/4] x8 | x8 | x8 | x8 | x8 | x8 | %13
 x8 ||[M:3/4] x6 ||[M:4/4] x8 ||[M:3/4] x6 ||[M:4/4] x8 | x8 | x8 | x8 | x8 | x8 | x8 || %24
[M:3/4] x6 ||[M:4/4] x8 ||[M:3/4] x6 ||[M:4/4] x8 | x8 | x8 | x8 | %31
 x2 [G,,,G,,]2 [G,,,G,,]2 [G,,,G,,]2 | x8 | x8 |] %34
V:5
 x8 | x8 | x8 | x8 ||[M:3/4] x6 ||[M:4/4] x8 ||[M:3/4] x6 ||[M:4/4] x8 | x8 | x8 | x8 | x8 | x8 | %13
 x8 ||[M:3/4] x6 ||[M:4/4] x8 ||[M:3/4] x6 ||[M:4/4] x8 | x8 | x8 | x8 | x8 | x8 | x8 || %24
[M:3/4] x6 ||[M:4/4] x8 ||[M:3/4] x6 ||[M:4/4] x8 | x8 | x8 | x8 | x8 | x8 | x2 A2 x4 |] %34

